X: 32171
T: Peter Street
R: reel
M: 4/4
K: Dmajor
|:G2 (3BAG dGBG|dg g2 efge|dG G2 dGBG|FDAD cDAD|
G2 BG dGBG|dg g2 efge|dedB g3e|dBAB G4:|
|:D2 D2 AD D2|ADcD BDAD|G2 (3BAG dG G2|dg g2 efge|
d^cdB g3e|d^cdB g3d|edgd edcB|AGFE D2 FE:|

